X:109
T: Ice on the Pond
M: C|
K: G
"Em"E2EF EDEF|GFGA "A7"BAB^c|"D"d2A^cd2A=c|"D"Bcdc "Bm" BAFG|
"Em"E2EF EDEF|GFGA "A7"BAB^c|"D"d2A^cd2A=c|"B7"BAFG "Em" E4:|
|:"G"G2DGB2GB|dcBd gedB|"C"cBAc "G"BcdB|"Am"cBAG "D7"FDEF|
"G"G2DGB2GB|dcBd gedB|"C"cBAc "G"BcdB|"D7"cAFD "G"G4:|
